X:317
T: Die treulose Braut (60), S. 186
N: T0206
O: Luxemburg
S: Singendes Volk, Esch-Alzette 1937 posth.]
N: Hemstal, fff Maria Fisch, 7.9.1913
R: Liebeslieder]
M: 4/4
L: 1/8
K: D
DF | A3BA2AG | F3EF2
GF | EEd2c2B2 | A4z2
DF | A2Add2cB | BAAAAAGG | G2B2A2
AG | F2AAE2FE | D4z2

